X:4
T:4. Eisenkeilnest
K: Eb
M:3/4
L:1/8
B,2 || \
M:4/4
L:1/4
G,B,EF | \
M:3/4
L:1/8
E2 GGGG | G2 z2 G2 | \
M:4/4
L:1/4
GGFE | \
M:3/4
L:1/8
E2 DDDD | D2 z2 B,2 | \
M:4/4
L:1/4
G,B,B,F | \
M:3/4
L:1/8
G2 GGGG |
% End first line/beginning second of A part, Eisenkeilnest
G2 z2 G2 | \
M:4/4
L:1/4
GGFE | \
M:3/4
L:1/8
E2 DDDD | D2 z2 D2 | \
M:2/4
L:1/4
(EC) | \
M:3/4
L:1/8
D2 z2 D2 | \
M:2/4
L:1/4
(EC) | \
M:3/4
L:1/8
D2 z2 D2 | \
M:2/4
L:1/4
(EC) | \
M:3/4
L:1/8
D2 DDDD |
% End second line/beginning third of A part, Eisenkeilnest
D2 z2 D2 | \
M:2/4
L:1/4
(EC) | \
M:3/4
L:1/8
D2 z2 D2 | \
M:2/4
L:1/4
(EC) | \
M:3/4
L:1/8
D2 z2 D2 | \
M:2/4
L:1/4
(EC) |1 \
M:3/4
L:1/8
D2 DDDD | D2 z2 B,2 :|2 \
M:3/4
L:1/8
D2 DFAB | G2 z2 E2 ||
% End of A part/beginning of B part, Eisenkeilnest
K:Ab
M:4/4
L:1/4
|| CEAB | \
M:3/4
L:1/8
c2 cccc | c2 z2 c2 | \
M:4/4
L:1/4
dcBA | \
M:3/4
L:1/8
A2 EEEE | E2 z2 E2 | \
M:4/4
L:1/4
CEAB | \
M:3/4
L:1/8
c2 cccc |
% End first line/start second of B part, Eisenkeilnest
c2 z2 c2 | \
M:4/4
L:1/4
dcBA | \
M:3/4
L:1/8
A2 GGGG | G2 z2 G2 | \
M:2/4
L:1/4
(AF) | \
M:3/4
L:1/8
G2 z2 G2 | \
M:2/4
L:1/4
(AF) | \
M:3/4
L:1/8
G2 z2 G2 | \
M:2/4
L:1/4
(AF) | \
M:3/4
L:1/8
G2 GGGG |
% End second line/start third, B part, Eisenkeilnest
G2 z2 G2 | \
M:2/4
L:1/4
(AF) | \
M:3/4
L:1/8
G2 z2 G2 | \
M:2/4
L:1/4
(AF) | \
M:3/4
L:1/8
G2 z2 G2 | \
M:2/4
L:1/4
(AF) |1 \
M:3/4
L:1/8
G2 GGGG | G2 z2 E2 :|2 \
M:3/4
L:1/8
G2 FEDG | A2 z2 |]
N:Written with second voice, 2012 Mar 30

